; G-Code generated by Simplify3D(R) Version 4.1.1
; Feb 5, 2019 at 2:06:19 PM
; Settings Summary
;   processName,Process1
;   applyToModels,GateSt?nder_EndKappe
;   profileName,Creality CR-10 (modified)
;   profileVersion,2018-12-19 09:16:21
;   baseProfile,
;   printMaterial,PLA
;   printQuality,Medium
;   printExtruders,
;   extruderName,Primary Extruder
;   extruderToolheadNumber,0
;   extruderDiameter,0.4
;   extruderAutoWidth,0
;   extruderWidth,0.4
;   extrusionMultiplier,1.05
;   extruderUseRetract,1
;   extruderRetractionDistance,5
;   extruderExtraRestartDistance,0
;   extruderRetractionZLift,0
;   extruderRetractionSpeed,1800
;   extruderUseCoasting,0
;   extruderCoastingDistance,0.2
;   extruderUseWipe,0
;   extruderWipeDistance,5
;   primaryExtruder,0
;   layerHeight,0.2
;   topSolidLayers,3
;   bottomSolidLayers,3
;   perimeterOutlines,2
;   printPerimetersInsideOut,1
;   startPointOption,2
;   startPointOriginX,0
;   startPointOriginY,0
;   sequentialIslands,0
;   spiralVaseMode,0
;   firstLayerHeightPercentage,120
;   firstLayerWidthPercentage,150
;   firstLayerUnderspeed,0.5
;   useRaft,0
;   raftExtruder,0
;   raftTopLayers,3
;   raftBaseLayers,2
;   raftOffset,3
;   raftSeparationDistance,0.14
;   raftTopInfill,100
;   aboveRaftSpeedMultiplier,0.3
;   useSkirt,1
;   skirtExtruder,0
;   skirtLayers,1
;   skirtOutlines,2
;   skirtOffset,4
;   usePrimePillar,0
;   primePillarExtruder,999
;   primePillarWidth,12
;   primePillarLocation,7
;   primePillarSpeedMultiplier,1
;   useOozeShield,0
;   oozeShieldExtruder,999
;   oozeShieldOffset,2
;   oozeShieldOutlines,1
;   oozeShieldSidewallShape,1
;   oozeShieldSidewallAngle,30
;   oozeShieldSpeedMultiplier,1
;   infillExtruder,0
;   internalInfillPattern,Rectilinear
;   externalInfillPattern,Rectilinear
;   infillPercentage,20
;   outlineOverlapPercentage,15
;   infillExtrusionWidthPercentage,100
;   minInfillLength,5
;   infillLayerInterval,1
;   internalInfillAngles,45,-45
;   overlapInternalInfillAngles,0
;   externalInfillAngles,45,-45
;   generateSupport,0
;   supportExtruder,0
;   supportInfillPercentage,30
;   supportExtraInflation,0
;   supportBaseLayers,0
;   denseSupportExtruder,0
;   denseSupportLayers,0
;   denseSupportInfillPercentage,70
;   supportLayerInterval,1
;   supportHorizontalPartOffset,0.3
;   supportUpperSeparationLayers,1
;   supportLowerSeparationLayers,1
;   supportType,0
;   supportGridSpacing,2
;   maxOverhangAngle,45
;   supportAngles,0
;   temperatureName,Primary Extruder,Heated Bed
;   temperatureNumber,0,0
;   temperatureSetpointCount,2,2
;   temperatureSetpointLayers,1,2,1,2
;   temperatureSetpointTemperatures,210,190,60,50
;   temperatureStabilizeAtStartup,1,1
;   temperatureHeatedBed,0,1
;   fanLayers,1,2
;   fanSpeeds,0,100
;   blipFanToFullPower,0
;   adjustSpeedForCooling,1
;   minSpeedLayerTime,15
;   minCoolingSpeedSlowdown,20
;   increaseFanForCooling,0
;   minFanLayerTime,45
;   maxCoolingFanSpeed,100
;   increaseFanForBridging,0
;   bridgingFanSpeed,100
;   use5D,1
;   relativeEdistances,0
;   allowEaxisZeroing,1
;   independentExtruderAxes,0
;   includeM10123,0
;   stickySupport,1
;   applyToolheadOffsets,0
;   gcodeXoffset,0
;   gcodeYoffset,0
;   gcodeZoffset,0
;   overrideMachineDefinition,1
;   machineTypeOverride,0
;   strokeXoverride,300
;   strokeYoverride,300
;   strokeZoverride,400
;   originOffsetXoverride,0
;   originOffsetYoverride,0
;   originOffsetZoverride,0
;   homeXdirOverride,-1
;   homeYdirOverride,-1
;   homeZdirOverride,-1
;   flipXoverride,1
;   flipYoverride,-1
;   flipZoverride,1
;   toolheadOffsets,0,0|0,0|0,0|0,0|0,0|0,0
;   overrideFirmwareConfiguration,1
;   firmwareTypeOverride,RepRap (Marlin/Repetier/Sprinter)
;   GPXconfigOverride,r2
;   baudRateOverride,115200
;   overridePrinterModels,1
;   printerModelsOverride
;   startingGcode,G28 ; home all axes,G1 Z5 F3000 ; lift,G1 X5 Y10 F1500 ; move to prime,G1 Z0.2 F3000 ; get ready to prime,G92 E0 ; reset extrusion distance,G1 Y80 E10 F600 ; prime nozzle,G1 Y100 F5000 ; quick wipe
;   layerChangeGcode,
;   retractionGcode,
;   toolChangeGcode,
;   endingGcode,G28 X0 ; home x axis,M106 S0 ; turn off cooling fan,M104 S0 ; turn off extruder,M140 S0 ; turn off bed,M84 ; disable motors
;   exportFileFormat,gcode
;   celebration,0
;   celebrationSong,Random Song
;   postProcessing,
;   defaultSpeed,2200
;   outlineUnderspeed,0.5
;   solidInfillUnderspeed,0.8
;   supportUnderspeed,0.8
;   rapidXYspeed,4800
;   rapidZspeed,1000
;   minBridgingArea,50
;   bridgingExtraInflation,0
;   bridgingExtrusionMultiplier,1
;   bridgingSpeedMultiplier,1
;   useFixedBridgingAngle,0
;   fixedBridgingAngle,0
;   applyBridgingToPerimeters,0
;   filamentDiameters,1.75|1.75|1.75|1.75|1.75|1.75
;   filamentPricesPerKg,46|46|46|46|46|46
;   filamentDensities,1.25|1.25|1.25|1.25|1.25|1.25
;   useMinPrintHeight,0
;   minPrintHeight,0
;   useMaxPrintHeight,0
;   maxPrintHeight,0
;   useDiaphragm,0
;   diaphragmLayerInterval,20
;   robustSlicing,1
;   mergeAllIntoSolid,0
;   onlyRetractWhenCrossingOutline,1
;   retractBetweenLayers,1
;   useRetractionMinTravel,0
;   retractionMinTravel,3
;   retractWhileWiping,0
;   onlyWipeOutlines,1
;   avoidCrossingOutline,0
;   maxMovementDetourFactor,3
;   toolChangeRetractionDistance,12
;   toolChangeExtraRestartDistance,-0.5
;   toolChangeRetractionSpeed,600
;   externalThinWallType,0
;   internalThinWallType,2
;   thinWallAllowedOverlapPercentage,10
;   singleExtrusionMinLength,1
;   singleExtrusionMinPrintingWidthPercentage,50
;   singleExtrusionMaxPrintingWidthPercentage,200
;   singleExtrusionEndpointExtension,0.2
;   horizontalSizeCompensation,0
G90
M82
M106 S0
M140 S60
M190 S60
M104 S210 T0
M109 S210 T0
G28 ; home all axes
G1 Z5 F3000 ; lift
G1 X5 Y10 F1500 ; move to prime
G1 Z0.2 F3000 ; get ready to prime
G92 E0 ; reset extrusion distance
G1 Y80 E10 F600 ; prime nozzle
G1 Y100 F5000 ; quick wipe
; process Process1
; layer 1, Z = 0.240
T0
G92 E0.0000
G1 E-5.0000 F1800
; feature skirt
; tool H0.240 W0.600
G1 Z0.240 F1000
G1 X197.072 Y70.101 F4800
G1 E0.0000 F1800
G92 E0.0000
G1 X197.136 Y69.934 E0.0112 F1100
G1 X197.626 Y68.780 E0.0901
G1 X197.702 Y68.618 E0.1013
G1 X198.276 Y67.504 E0.1801
G1 X198.364 Y67.348 E0.1914
G1 X199.017 Y66.278 E0.2702
G1 X199.116 Y66.129 E0.2814
G1 X199.846 Y65.109 E0.3602
G1 X199.955 Y64.968 E0.3715
G1 X200.758 Y64.004 E0.4503
G1 X200.877 Y63.871 E0.4616
G1 X201.748 Y62.969 E0.5404
G1 X201.877 Y62.844 E0.5516
G1 X202.811 Y62.008 E0.6304
G1 X202.948 Y61.894 E0.6417
G1 X203.941 Y61.128 E0.7205
G1 X204.086 Y61.024 E0.7317
G1 X205.132 Y60.332 E0.8105
G1 X205.285 Y60.239 E0.8218
G1 X206.378 Y59.625 E0.9006
G1 X206.537 Y59.544 E0.9119
G1 X207.673 Y59.012 E0.9907
G1 X207.837 Y58.942 E1.0019
G1 X209.008 Y58.494 E1.0807
G1 X209.178 Y58.436 E1.0920
G1 X210.378 Y58.075 E1.1708
G1 X210.552 Y58.030 E1.1820
G1 X211.775 Y57.758 E1.2608
G1 X211.951 Y57.725 E1.2721
G1 X213.192 Y57.543 E1.3509
G1 X213.370 Y57.523 E1.3622
G1 X214.620 Y57.431 E1.4410
G1 X214.799 Y57.425 E1.4522
G1 X216.052 Y57.425 E1.5310
G1 X216.231 Y57.431 E1.5423
G1 X217.482 Y57.523 E1.6211
G1 X217.660 Y57.543 E1.6323
G1 X218.900 Y57.725 E1.7112
G1 X219.076 Y57.758 E1.7224
G1 X220.300 Y58.030 E1.8012
G1 X220.473 Y58.075 E1.8125
G1 X221.673 Y58.436 E1.8913
G1 X221.843 Y58.494 E1.9025
G1 X223.014 Y58.942 E1.9813
G1 X223.179 Y59.012 E1.9926
G1 X224.314 Y59.544 E2.0714
G1 X224.473 Y59.625 E2.0826
G1 X225.566 Y60.239 E2.1615
G1 X225.719 Y60.332 E2.1727
G1 X226.765 Y61.024 E2.2515
G1 X226.911 Y61.128 E2.2628
G1 X227.903 Y61.894 E2.3416
G1 X228.041 Y62.008 E2.3528
G1 X228.975 Y62.844 E2.4316
G1 X229.103 Y62.969 E2.4429
G1 X229.974 Y63.871 E2.5217
G1 X230.093 Y64.004 E2.5329
G1 X230.896 Y64.968 E2.6118
G1 X231.005 Y65.109 E2.6230
G1 X231.735 Y66.129 E2.7018
G1 X231.834 Y66.278 E2.7131
G1 X232.487 Y67.348 E2.7919
G1 X232.575 Y67.504 E2.8031
G1 X233.149 Y68.618 E2.8819
G1 X233.225 Y68.780 E2.8932
G1 X233.716 Y69.934 E2.9720
G1 X233.780 Y70.101 E2.9832
G1 X234.185 Y71.287 E3.0621
G1 X234.237 Y71.459 E3.0733
G1 X234.554 Y72.672 E3.1521
G1 X234.593 Y72.846 E3.1634
G1 X234.822 Y74.079 E3.2422
G1 X234.848 Y74.256 E3.2534
G1 X234.986 Y75.502 E3.3322
G1 X234.999 Y75.681 E3.3435
G1 X235.046 Y76.933 E3.4223
G1 X235.046 Y77.112 E3.4335
G1 X235.001 Y78.365 E3.5124
G1 X234.988 Y78.544 E3.5236
G1 X234.851 Y79.790 E3.6024
G1 X234.826 Y79.967 E3.6137
G1 X234.599 Y81.200 E3.6925
G1 X234.560 Y81.375 E3.7037
G1 X234.244 Y82.588 E3.7825
G1 X234.192 Y82.760 E3.7938
G1 X233.788 Y83.946 E3.8726
G1 X233.725 Y84.114 E3.8839
G1 X233.235 Y85.268 E3.9627
G1 X233.159 Y85.430 E3.9739
G1 X232.587 Y86.545 E4.0527
G1 X232.499 Y86.702 E4.0640
G1 X231.847 Y87.772 E4.1428
G1 X231.749 Y87.922 E4.1540
G1 X231.046 Y88.905 E4.2300
G1 X230.993 Y88.977 E4.2357
G1 X225.442 Y96.179 E4.8073
G1 X223.396 Y97.185 E4.9505
G1 X207.452 Y97.185 E5.9528
G1 X205.406 Y96.179 E6.0961
G1 X199.858 Y88.977 E6.6676
G1 X199.805 Y88.905 E6.6732
G1 X199.103 Y87.922 E6.7492
G1 X199.004 Y87.772 E6.7605
G1 X198.352 Y86.702 E6.8393
G1 X198.264 Y86.545 E6.8505
G1 X197.692 Y85.430 E6.9293
G1 X197.616 Y85.268 E6.9406
G1 X197.127 Y84.114 E7.0194
G1 X197.063 Y83.946 E7.0306
G1 X196.659 Y82.760 E7.1094
G1 X196.608 Y82.588 E7.1207
G1 X196.291 Y81.375 E7.1995
G1 X196.253 Y81.200 E7.2108
G1 X196.026 Y79.967 E7.2896
G1 X196.000 Y79.790 E7.3008
G1 X195.863 Y78.544 E7.3796
G1 X195.851 Y78.365 E7.3909
G1 X195.806 Y77.112 E7.4697
G1 X195.806 Y76.933 E7.4809
G1 X195.852 Y75.681 E7.5598
G1 X195.865 Y75.502 E7.5710
G1 X196.003 Y74.256 E7.6498
G1 X196.029 Y74.079 E7.6611
G1 X196.258 Y72.846 E7.7399
G1 X196.297 Y72.672 E7.7511
G1 X196.615 Y71.459 E7.8299
G1 X196.666 Y71.288 E7.8412
G1 X197.072 Y70.101 E7.9200
G92 E0.0000
G1 E-5.0000 F1800
G1 X197.636 Y70.305 F4800
G1 E0.0000 F1800
G92 E0.0000
G1 X197.692 Y70.159 E0.0099 F1100
G1 X198.174 Y69.025 E0.0873
G1 X198.241 Y68.883 E0.0972
G1 X198.805 Y67.788 E0.1746
G1 X198.882 Y67.651 E0.1845
G1 X199.524 Y66.600 E0.2619
G1 X199.610 Y66.469 E0.2718
G1 X200.328 Y65.467 E0.3492
G1 X200.424 Y65.343 E0.3591
G1 X201.212 Y64.397 E0.4365
G1 X201.317 Y64.280 E0.4464
G1 X202.172 Y63.393 E0.5238
G1 X202.285 Y63.284 E0.5337
G1 X203.203 Y62.462 E0.6111
G1 X203.323 Y62.362 E0.6210
G1 X204.299 Y61.609 E0.6984
G1 X204.426 Y61.518 E0.7083
G1 X205.454 Y60.839 E0.7858
G1 X205.588 Y60.757 E0.7956
G1 X206.662 Y60.154 E0.8731
G1 X206.802 Y60.082 E0.8829
G1 X207.917 Y59.560 E0.9604
G1 X208.062 Y59.498 E0.9702
G1 X209.212 Y59.058 E1.0477
G1 X209.361 Y59.008 E1.0575
G1 X210.541 Y58.653 E1.1350
G1 X210.693 Y58.613 E1.1448
G1 X211.895 Y58.346 E1.2223
G1 X212.049 Y58.317 E1.2322
G1 X213.268 Y58.138 E1.3096
G1 X213.424 Y58.121 E1.3195
G1 X214.653 Y58.031 E1.3969
G1 X214.810 Y58.025 E1.4068
G1 X216.042 Y58.025 E1.4842
G1 X216.198 Y58.031 E1.4941
G1 X217.427 Y58.121 E1.5715
G1 X217.583 Y58.138 E1.5814
G1 X218.802 Y58.317 E1.6588
G1 X218.956 Y58.346 E1.6687
G1 X220.159 Y58.613 E1.7461
G1 X220.311 Y58.653 E1.7560
G1 X221.490 Y59.008 E1.8334
G1 X221.639 Y59.058 E1.8433
G1 X222.789 Y59.498 E1.9207
G1 X222.934 Y59.560 E1.9306
G1 X224.049 Y60.082 E2.0080
G1 X224.189 Y60.154 E2.0179
G1 X225.263 Y60.757 E2.0953
G1 X225.397 Y60.839 E2.1052
G1 X226.425 Y61.518 E2.1826
G1 X226.553 Y61.609 E2.1925
G1 X227.528 Y62.362 E2.2699
G1 X227.649 Y62.462 E2.2798
G1 X228.566 Y63.284 E2.3573
G1 X228.679 Y63.393 E2.3671
G1 X229.535 Y64.280 E2.4446
G1 X229.639 Y64.397 E2.4544
G1 X230.428 Y65.343 E2.5319
G1 X230.524 Y65.467 E2.5417
G1 X231.241 Y66.469 E2.6192
G1 X231.328 Y66.600 E2.6290
G1 X231.970 Y67.651 E2.7065
G1 X232.047 Y67.788 E2.7163
G1 X232.610 Y68.883 E2.7938
G1 X232.677 Y69.025 E2.8037
G1 X233.159 Y70.159 E2.8811
G1 X233.215 Y70.305 E2.8910
G1 X233.614 Y71.471 E2.9684
G1 X233.659 Y71.621 E2.9783
G1 X233.971 Y72.813 E3.0557
G1 X234.006 Y72.966 E3.0656
G1 X234.230 Y74.178 E3.1430
G1 X234.253 Y74.333 E3.1529
G1 X234.388 Y75.557 E3.2303
G1 X234.400 Y75.714 E3.2402
G1 X234.446 Y76.945 E3.3176
G1 X234.446 Y77.102 E3.3275
G1 X234.401 Y78.333 E3.4049
G1 X234.390 Y78.490 E3.4148
G1 X234.256 Y79.714 E3.4922
G1 X234.233 Y79.869 E3.5021
G1 X234.011 Y81.081 E3.5795
G1 X233.977 Y81.234 E3.5894
G1 X233.666 Y82.426 E3.6668
G1 X233.621 Y82.577 E3.6767
G1 X233.224 Y83.743 E3.7541
G1 X233.168 Y83.889 E3.7640
G1 X232.687 Y85.024 E3.8414
G1 X232.620 Y85.166 E3.8513
G1 X232.058 Y86.262 E3.9288
G1 X231.981 Y86.399 E3.9386
G1 X231.341 Y87.451 E4.0161
G1 X231.254 Y87.582 E4.0259
G1 X230.561 Y88.552 E4.1009
G1 X230.514 Y88.615 E4.1058
G1 X225.052 Y95.702 E4.6683
G1 X223.257 Y96.585 E4.7941
G1 X207.592 Y96.585 E5.7788
G1 X205.796 Y95.702 E5.9046
G1 X200.337 Y88.615 E6.4669
G1 X200.290 Y88.552 E6.4718
G1 X199.597 Y87.582 E6.5468
G1 X199.511 Y87.451 E6.5567
G1 X198.870 Y86.399 E6.6341
G1 X198.793 Y86.262 E6.6440
G1 X198.231 Y85.166 E6.7214
G1 X198.164 Y85.024 E6.7313
G1 X197.683 Y83.889 E6.8087
G1 X197.627 Y83.743 E6.8186
G1 X197.231 Y82.577 E6.8960
G1 X197.185 Y82.426 E6.9059
G1 X196.875 Y81.234 E6.9833
G1 X196.841 Y81.081 E6.9932
G1 X196.618 Y79.869 E7.0706
G1 X196.595 Y79.714 E7.0805
G1 X196.461 Y78.490 E7.1579
G1 X196.450 Y78.333 E7.1678
G1 X196.406 Y77.102 E7.2452
G1 X196.406 Y76.945 E7.2551
G1 X196.451 Y75.714 E7.3325
G1 X196.463 Y75.557 E7.3424
G1 X196.598 Y74.333 E7.4199
G1 X196.621 Y74.178 E7.4297
G1 X196.846 Y72.966 E7.5072
G1 X196.880 Y72.813 E7.5170
G1 X197.192 Y71.621 E7.5945
G1 X197.237 Y71.471 E7.6043
G1 X197.636 Y70.305 E7.6818
G92 E0.0000
G1 E-5.0000 F1800
; feature inner perimeter
G1 X202.520 Y72.092 F4800
G1 E0.0000 F1800
G92 E0.0000
G1 X202.915 Y71.164 E0.0634 F825
G1 X203.377 Y70.267 E0.1269
G1 X203.903 Y69.406 E0.1903
G1 X204.491 Y68.585 E0.2537
G1 X205.136 Y67.810 E0.3171
G1 X205.837 Y67.084 E0.3806
G1 X206.589 Y66.411 E0.4440
G1 X207.387 Y65.794 E0.5074
G1 X208.229 Y65.238 E0.5709
G1 X209.109 Y64.744 E0.6343
G1 X210.023 Y64.316 E0.6977
G1 X210.965 Y63.955 E0.7611
G1 X211.932 Y63.665 E0.8246
G1 X212.917 Y63.445 E0.8880
G1 X213.915 Y63.299 E0.9514
G1 X214.921 Y63.225 E1.0149
G1 X215.930 Y63.225 E1.0783
G1 X216.936 Y63.299 E1.1417
G1 X217.935 Y63.445 E1.2052
G1 X218.920 Y63.665 E1.2686
G1 X219.886 Y63.955 E1.3320
G1 X220.828 Y64.316 E1.3954
G1 X221.742 Y64.744 E1.4589
G1 X222.622 Y65.237 E1.5223
G1 X223.464 Y65.794 E1.5857
G1 X224.263 Y66.410 E1.6491
G1 X225.014 Y67.084 E1.7126
G1 X225.715 Y67.810 E1.7760
G1 X226.361 Y68.585 E1.8394
G1 X226.948 Y69.406 E1.9029
G1 X227.474 Y70.267 E1.9663
G1 X227.936 Y71.164 E2.0297
G1 X228.331 Y72.092 E2.0932
G1 X228.657 Y73.047 E2.1566
G1 X228.913 Y74.023 E2.2200
G1 X229.097 Y75.015 E2.2835
G1 X229.115 Y75.184 E2.2941
G1 X229.208 Y76.018 E2.3469
G1 X229.245 Y77.027 E2.4103
G1 X229.209 Y78.035 E2.4737
G1 X229.099 Y79.038 E2.5372
G1 X228.917 Y80.030 E2.6006
G1 X228.662 Y81.007 E2.6640
G1 X228.608 Y81.167 E2.6747
G1 X228.337 Y81.962 E2.7275
G1 X227.943 Y82.891 E2.7909
G1 X227.482 Y83.789 E2.8543
G1 X226.957 Y84.651 E2.9177
G1 X226.362 Y85.485 E2.9822
G1 X221.814 Y91.385 E3.4505
G1 X209.035 Y91.385 E4.2538
G1 X204.490 Y85.485 E4.7220
G1 X203.894 Y84.650 E4.7864
G1 X203.369 Y83.789 E4.8499
G1 X202.908 Y82.891 E4.9133
G1 X202.514 Y81.962 E4.9767
G1 X202.189 Y81.007 E5.0402
G1 X201.935 Y80.030 E5.1036
G1 X201.752 Y79.038 E5.1670
G1 X201.642 Y78.035 E5.2304
G1 X201.606 Y77.027 E5.2939
G1 X201.644 Y76.018 E5.3573
G1 X201.755 Y75.015 E5.4207
G1 X201.938 Y74.023 E5.4842
G1 X202.194 Y73.047 E5.5476
G1 X202.249 Y72.887 E5.5582
G1 X202.520 Y72.092 E5.6110
; feature outer perimeter
G1 X201.960 Y71.877 F4800
G92 E0.0000
G1 X202.372 Y70.909 E0.0662 F550
G1 X202.854 Y69.973 E0.1324
G1 X203.403 Y69.074 E0.1985
G1 X204.016 Y68.218 E0.2647
G1 X204.689 Y67.409 E0.3309
G1 X205.420 Y66.651 E0.3971
G1 X206.205 Y65.949 E0.4633
G1 X207.038 Y65.306 E0.5295
G1 X207.916 Y64.725 E0.5957
G1 X208.835 Y64.210 E0.6618
G1 X209.788 Y63.763 E0.7280
G1 X210.772 Y63.387 E0.7942
G1 X211.780 Y63.084 E0.8604
G1 X212.807 Y62.855 E0.9266
G1 X213.849 Y62.702 E0.9928
G1 X214.899 Y62.625 E1.0590
G1 X215.952 Y62.625 E1.1251
G1 X217.002 Y62.702 E1.1913
G1 X218.044 Y62.855 E1.2575
G1 X219.071 Y63.084 E1.3237
G1 X220.080 Y63.387 E1.3899
